!!!COM: Fanny (Mendelssohn) Hensel
!!!CNT: Deutsch
!!!TXO: Deutsch
!!!OTL: "Gegenwart"
!!!LYR: von Goethe, Johann Wolfgang
!!!OPR:
!!!OPS: Op.
!!!ONM: No.
!!!ENC: Emily Thomas
!!!YOR: Hensel: Ausgewa2hlte Lieder fu2r Singstimme und Klavier
!!!YOR: Breitkopf & Hartel, 1994
!!!ODT: 1833/
!!NB: Vocal melody and text encoded.
**kern	**silbe
=1-	=1
*clefG2	*
*k[b-e-a-]	*
*M6/8	*
*MM[Allegro moderato]	*
2.r	.
=2	=2
{4ee-	{Al-
8b-	-les
8.g	ku2n-
16a-	-det
8b-	Dich
=3	=3
4e-}	an!}
8r	.
4r	.
{16a-	{Er-
16f	|
=4	=4
8e-	-schei-
8d	-net
8e-	die
8.b-	herr-
16a-	-li-
8g	-che
=5	=5
4.cc	Son-
4.dd	|
=6	=6
4ee-	|
8c	|
4g}	-ne,}
8r	.
=7	=7
{16g	{folgst
16f	|
8f	Du,
16r	.
16f	so
16b-	hoff
16an	ich
8a	es,
16r	.
16a	so
=8	=8
8ee-	hoff
16dd	ich
16cc	|
16b-	es,
16an	|
8g	bald
8f}	|}
8r	.
=9	=9
{[4.f	{fol-
8f]	|
8g	-gest
8f	Du,
=10	=10
[4.b-	fol-
8b-]	|
16an	-gest
16g	|
16f	Du
16en	|
=11	=11
4.g	bald.
4f}	|}
8r	.
=12	=12
{8.d	{Trittst
16e-	Du
8d	im
8.f	Gar-
16g	-ten
8f	her-
=13	=13
4.b-	-vor,
4an}	|}
16r	.
{16an	{so
=14	=14
16an	bist
16g	|
8g	Du
16r	.
16g	die
16cc	Ro-
16b-	|
8b-	-se,
16r	.
16b-	die
=15	=15
8ee-	Ro-
16dd	-se
16cc	|
16b-	der
16an	|
8g	Ro-
8f}	-sen,}
8r	.
=16	=16
{8ff	{Ro-
16ee-	-se
16dd	|
16cc	der
16b-	|
16b-	Ro-
32a-	|
32g	|
8f	-sen,
8r	.
=17	=17
4g	Li-
[8b-	|
8b-]	|
8a-	-lie
8f	der
=18	=18
4e-	Li-
[8g	|
8g]	|
8f	-lien
8d	zu-
=19	=19
4e-}	-gleich.}
8r	.
4r	.
8r	.
=20	=20
4r	.
8r	.
{8b-	{Wenn
8b-	Du
8b-	zum
=21	=21
[4.ee-	Tan-
8ee-]	|
8f	-ze
8cc	Dich
=22	=22
8e-	regst,
16d	|
16e-	|
16f	|
16g	|
8a-	|
8r	.
16f	so
16e-	|
=23	=23
16d	re-
16e-	|
16f	|
16g	|
16a-	|
16g	|
16f	|
16g	|
16a-	|
16b-	|
16cc	|
16dd	|
=24	=24
8ee-	|
8b-	-gen
8g	sich
8f	al-
8e-	-le
16b-	Ge-
16a-	|
=25	=25
4.g	stir-
4f	|
8g	|
=26	=26
4gS	|
16b-	|
16a-	|
4a-}	-ne}
8r	.
=27	=27
{4.cc	{mit
4f	Dir
8f	und
=28	=28
4.b-	um
4e-	Dich
8e-	um-
=29	=29
[4.a-	-her,
16a-]	|
16g	|
16f	|
16en	|
16f	|
16g	|
=30	=30
16a-	|
16g	|
16f	|
16g	|
16a-	|
16b-	|
16cc	|
16b-	|
16a-	|
16b-	|
16cc	|
16dd	|
=31	=31
8ee-	|
8b-	|
8g	mit
8f	Dir
8e-	und
16b-	um
16a-	|
=32	=32
4.g	Dich
4f	|
8e-	um-
=33	=33
4e-}	-her.}
8r	.
4r	.
8r	.
=34	=34
2.r	.
=35	=35
{4.g	{Nacht!
4r	.
16e-	und
16c	so
=36	=36
8.g	wa2r
16a-	es
8g	denn
4g}	Nacht!}
8r	.
=37	=37
{4.cc	{Nun
4b-	u2-
8e-	-ber-
=38	=38
4.a-	-strahlst
8g	|
16f	Du
16e-	|
16d	des
16c	|
=39	=39
4.f	Mon-
4.f	-des
=40	=40
4.f	lieb-
4f	-li-
8f	-chen,
=41	=41
[4.bn	la-
8bn]	|
8an	-den-
8g	-den
=42	=42
4cc}	Glanz,}
8r	.
4r	.
{16a-	Du
16f	|
=43	=43
4e-	u2-
8d	-ber-
8f	-strahlst
8en	|
16f	des
16g	|
=44	=44
8g	Mon-
8f	|
16g	-des
16a-	|
8a-	lieb-
8g	-li-
8b-	-chen,
=45	=45
8b-	la-
8an	|
[8ee-	|
8ee-]	|
8cc	-den-
8a-	-den
=46	=46
4b-}	Glanz.}
8r	.
4r	.
8r	.
=47	=47
*M4/4	*
*MM[poco piu allegro]	*
{8g	{La-
8a-	|
8an	|
8b-	|
8cc	|
8b-	|
8ee-	|
8dd	|
=48	=48
8ff	|
8ee-	|
8cc	-dend
8g	und
8en	lieb-
8f	|
8cc	-lich
8b-	bist
=49	=49
4b-}	Du,}
4r	.
8r	.
{8b-	{und
8cc	Blu-
8b-	-men,
=50	=50
4r	.
8cc	Blu-
8b-	-men,
4dd	Mond
12cc	und
12b-	|
12an	Ge-
=51	=51
*M2/4	*
4an	-stir-
4b-	-ne
=52	=52
*M4/4	*
8b-	hul-
8an	|
8dd	|
8cc	|
8b-	|
8a-	|
8g	-di-
8f#}	-gen,}
=53	=53
{8g	Son-
8an	|
8b-	|
8bn	|
8cc	|
8g	|
12ee-	-ne,
12dd	|
12cc	nur
=54	=54
2b-	Dir.
2a-}	|}
=55	=55
{4g	{Son-
8an	-ne!
8bn	so
4cc	sei
8dd	Du
8ee-	auch
=56	=56
2.ff	mir
4f	die
=57	=57
4f	Scho2p-
8e-	-fe-
8d	-rin
4dd	herr-
8cc	-li-
8b-	-cher
=58	=58
[4bn	Ta-
12bn]	|
12dd	|
12cc	|
4an}	-ge,}
8r	.
{8a-	{die
=59	=59
4cc	Scho2p-
8b-	-fe-
8an	-rin
4an	herr-
8b-	-li-
8cc	-cher
=60	=60
[4ee-	Ta-
12ee-]	|
12g	|
12f	|
4d}	-ge;}
4r	.
=61	=61
*MM[largamente]	*
{8e-	{Le-
8g	|
8b-	|
8dd	|
8ee-	|
8dd-	|
8cc	|
8bn	|
=62	=62
8cc	|
8en	|
8f	|
8g	|
8a-	|
8cc	|
8gg	-ben
8ff	und
=63	=63
2ee-	E-
2dd	-wig-
=64	=64
2dd-	-keit
4cc}	ist's,}
{4ff	{und
=65	=65
2b-	E-
4cc	-wig-
4dd	-keit
=66	=66
4ee-}	ist's.}
4r	.
2r	.
==	==
*-	*-
